X:1
T:Silent Night! Holy Night!
T:Silent Night! Holy Night!
%%score ( 1 2 ) ( 3 4 )
L:1/8
M:6/8
K:Bb
V:1 treble nm="Piano" snm="Pno."
V:2 treble 
V:3 bass nm="Piano" snm="Pno."
V:4 bass 
V:1
 (([DF]>[EG]))[DF] [B,D]3 | (([DF]>[EG]))[DF] [B,D]3 | [Ec]2 [Ec] [EA]3 | [DB]2 [DB] [DF]3 | %4
w: 1~Si- * lent night,|ho- * ly night!|All is calm,|all is bright|
w: 2~Si- * lent night,|ho- * ly night!|Shep- herds quake|at the sight,|
w: 3~Si- * lent night,|ho- * ly night!|Son of God,|love’s pure light,|
 [EG]2 [EG] (([GB]>[FA]))[EG] | [DF]>[EG][DF] [B,D]3 | [B,G]2 [EG] (([GB]>[FA]))[EG] | %7
w: 'round yon vir- * gin|mo- ther and child;|ho- ly in- fant, so|
w: glo- ries stream _ from|hea- ven a- far,|heaven- ly hosts of sing|
w: ra- diant beams _ from|thy ho- ly face,|with the dawn * re-|
 (([DF]>[EG]))[DF] | [B,D]3 | [Ec]2 [Ec] [Ee]>[Ec][EA] | (([DB]3 [Fd]3)) | %11
w: ten- der and|mild,|sleep in hea- ven- ly|peace, _|
w: al- le- lu-|ia;|Christ, the Sa- vior, is|born! _|
w: deem- * ing|grace,|Je- sus, Lord, at thy|birth, _|
 (BF)[B,D] [A,F]>[A,E][A,C] | B,6 |] %13
w: sleep _ in hea- ven- ly|peace.|
w: Chris, _ the Sa- vior, is|born!|
w: Je- * sus, Lord, at thy|birth.|
V:2
 x6 | x6 | x6 | x6 | x6 | x6 | x6 | x3 | x3 | x6 | x6 | D2 x4 | B,6 |] %13
V:3
 [B,,B,]2 [B,,B,] [B,,F,]3 | [B,,B,]->[B,,B,][B,,B,] [B,,F,]3 | [F,A,]2 [F,A,] [F,C]3 | %3
 [B,,B,]2 [B,,F,] [B,,B,]3 | [E,B,]2 [E,B,] ([E,-G,]>[E,A,])[E,B,] | %5
 [B,,B,]>[B,,B,][B,,B,] [B,,F,]3 | E,2 [E,B,] ([E,-G,]>[E,A,])[E,B,] | [B,,B,]->[B,,B,][B,,B,] | %8
 [B,,F,]3 | [F,A,]2 [F,A,] C>A,F, | ([B,,-F,]3 [B,,B,]3) | F,2 F, [F,,F,]>[F,,F,][F,,E,] | %12
 [B,,D,]6 |] %13
V:4
 x6 | x6 | x6 | x6 | x6 | x6 | E,2 x4 | x3 | x3 | x3 F,>F,F, | x6 | F,2 F, x3 | x6 |] %13

